assets/img/whatsapp.svg

<svg width="24" height="24" viewBox="0 0 24 24" fill="none" xmlns="http://www.w3.org/2000/svg">
<path d="M2 22L3.40069 17.0306C2.49996 15.5021 2.02573 13.7629 2.02573 11.9763C2.02573 6.47537 6.50595 2 12.0129 2C17.5198 2 22 6.47537 22 11.9763C22 17.4773 17.5198 21.9527 12.0129 21.9527C10.297 21.9527 8.61674 21.5139 7.13034 20.6808L2 22ZM7.39262 18.8658L7.69832 19.0523C8.99429 19.8426 10.4863 20.2604 12.0129 20.2604C16.5857 20.2604 20.3058 16.5442 20.3058 11.9763C20.3058 7.40852 16.5857 3.69232 12.0129 3.69232C7.44012 3.69232 3.71988 7.40852 3.71988 11.9763C3.71988 13.5679 4.17272 15.1135 5.02934 16.446L5.23521 16.7662L4.4286 19.628L7.39262 18.8658Z" fill="white"/>
<path fill-rule="evenodd" clip-rule="evenodd" d="M3.5 20.5L4.5 16.5L3 11.5L4 7.5L6 5L10.5 3L16.5 4L19.5 7L20.5 10L21 14L19.5 17L16.5 20L13 21L8 20.5L6 20L3.5 20.5ZM8.55946 7.29778L9.2075 7.33307C9.33506 7.34002 9.4477 7.41875 9.49796 7.53621L10.442 9.74255C10.4925 9.86038 10.4713 9.99671 10.3873 10.0937L9.5656 11.0433C9.49902 11.1203 9.48735 11.2299 9.53429 11.3202C10.6165 13.4027 12.5889 14.2278 13.1777 14.4345C13.2781 14.4698 13.3893 14.4364 13.4542 14.3523L14.3141 13.2389C14.4097 13.1151 14.5783 13.0737 14.7205 13.1392L16.9106 14.1476C17.0533 14.2133 17.1313 14.369 17.0984 14.5224L16.995 15.0052C16.8783 15.5498 16.5544 16.0316 16.0846 16.3318C15.4915 16.7108 14.7227 16.8969 13.7455 16.6209C10.7127 15.7642 8.99768 13.7585 8.07737 12.505C7.15707 11.2514 6.80149 9.99784 7.03158 8.97411C7.18587 8.28753 7.68822 7.76066 8.00239 7.48813C8.15625 7.35463 8.35591 7.28668 8.55946 7.29778Z" fill="white"/>
</svg>

<svg width="24" height="24" fill="none" xmlns="http://www.w3.org/2000/svg"><path d="M2 22l1.4-4.97a9.937 9.937 0 01-1.374-5.054c0-5.5 4.48-9.976 9.987-9.976S22 6.475 22 11.976c0 5.501-4.48 9.977-9.987 9.977A9.983 9.983 0 017.13 20.68L2 22zm5.393-3.134l.305.186a8.283 8.283 0 004.315 1.208c4.573 0 8.293-3.716 8.293-8.284 0-4.567-3.72-8.284-8.293-8.284-4.573 0-8.293 3.717-8.293 8.284 0 1.592.453 3.137 1.31 4.47l.205.32-.806 2.862 2.964-.762z" fill="#fff"/><path fill-rule="evenodd" clip-rule="evenodd" d="M3.5 20.5l1-4-1.5-5 1-4L6 5l4.5-2 6 1 3 3 1 3 .5 4-1.5 3-3 3-3.5 1-5-.5-2-.5-2.5.5zM8.56 7.298l.647.035c.128.007.24.086.291.203l.944 2.207c.05.117.03.254-.055.35l-.821.95a.248.248 0 00-.032.277c1.082 2.083 3.055 2.908 3.644 3.114.1.036.211.002.276-.082l.86-1.113a.336.336 0 01.406-.1l2.19 1.009a.334.334 0 01.188.374l-.103.483a2.09 2.09 0 01-.91 1.327c-.594.379-1.362.565-2.34.289-3.032-.857-4.747-2.862-5.668-4.116-.92-1.254-1.276-2.507-1.045-3.53.154-.687.656-1.214.97-1.487a.784.784 0 01.557-.19z" fill="#fff"/></svg>
